world_stage/static/flags/rect/cpv.svg

<svg height="235.29333" viewBox="0 0 350.66534 235.29333" width="350.66534" xmlns="http://www.w3.org/2000/svg"><g transform="matrix(1.3333333 0 0 -1.3333333 0 235.29333)"><path d="m0 1.117h263v175.333h-263z" fill="#003893"/><path d="m0 44.117h263v44.117h-263z" fill="#fff"/><path d="m0 58.822h263v14.706h-263z" fill="#ce1126"/></g><g fill="#fc0"><path d="m0 0 5.186-3.768-1.981-6.096 5.187 3.767 5.186-3.767-1.981 6.096 5.186 3.768h-6.41l-1.981 6.098-1.981-6.098z" transform="matrix(1.3333333 0 0 -1.3333333 119.64667 84.600267)"/><path d="m0 0 5.186-3.769-1.981-6.096 5.186 3.767 5.187-3.767-1.981 6.096 5.186 3.769h-6.411l-1.981 6.097-1.981-6.097z" transform="matrix(1.3333333 0 0 -1.3333333 85.132933 96.027333)"/><path d="m0 0 5.187-3.769-1.982-6.096 5.187 3.768 5.186-3.768-1.981 6.097 5.186 3.768h-6.41l-1.981 6.097-1.981-6.097z" transform="matrix(1.3333333 0 0 -1.3333333 153.9096 95.671867)"/><path d="m0 0 5.186-3.769-1.981-6.096 5.187 3.768 5.186-3.768-1.981 6.097 5.186 3.768h-6.41l-1.981 6.097-1.981-6.097z" transform="matrix(1.3333333 0 0 -1.3333333 175.3328 125.38413)"/><path d="m0 0 5.186-3.769-1.981-6.096 5.187 3.768 5.186-3.768-1.981 6.096 5.186 3.769h-6.41l-1.981 6.097-1.981-6.097z" transform="matrix(1.3333333 0 0 -1.3333333 175.3328 161.46227)"/><path d="m0 0 5.186-3.768-1.981-6.096 5.187 3.767 5.186-3.767-1.981 6.096 5.186 3.768h-6.41l-1.981 6.098-1.981-6.098z" transform="matrix(1.3333333 0 0 -1.3333333 154.1564 191.26693)"/><path d="m0 0 5.186-3.769-1.981-6.096 5.187 3.767 5.186-3.767-1.981 6.096 5.186 3.769h-6.411l-1.98 6.097-1.982-6.097z" transform="matrix(1.3333333 0 0 -1.3333333 119.6648 202.2552)"/><path d="m0 0 5.186-3.768-1.981-6.097 5.187 3.768 5.186-3.768-1.981 6.097 5.186 3.768h-6.411l-1.98 6.097-1.982-6.097z" transform="matrix(1.3333333 0 0 -1.3333333 84.6108 190.8216)"/><path d="m0 0 5.186-3.768-1.981-6.097 5.187 3.768 5.186-3.768-1.981 6.097 5.186 3.768h-6.41l-1.981 6.097-1.981-6.097z" transform="matrix(1.3333333 0 0 -1.3333333 63.879067 161.2852)"/><path d="m0 0 5.186-3.769-1.981-6.096 5.187 3.767 5.186-3.767-1.981 6.096 5.186 3.769h-6.411l-1.98 6.097-1.982-6.097z" transform="matrix(1.3333333 0 0 -1.3333333 63.972133 125.04427)"/></g></svg>

<?xml version="1.0" encoding="UTF-8" standalone="no"?>
<!-- Created with Inkscape (http://www.inkscape.org/) -->

<svg
   version="1.1"
   id="svg1"
   width="350.66534"
   height="235.29333"
   viewBox="0 0 350.66534 235.29333"
   sodipodi:docname="cv.ai"
   xmlns:inkscape="http://www.inkscape.org/namespaces/inkscape"
   xmlns:sodipodi="http://sodipodi.sourceforge.net/DTD/sodipodi-0.dtd"
   xmlns="http://www.w3.org/2000/svg"
   xmlns:svg="http://www.w3.org/2000/svg">
  <defs
     id="defs1" />
  <sodipodi:namedview
     id="namedview1"
     pagecolor="#ffffff"
     bordercolor="#000000"
     borderopacity="0.25"
     inkscape:showpageshadow="2"
     inkscape:pageopacity="0.0"
     inkscape:pagecheckerboard="0"
     inkscape:deskcolor="#d1d1d1">
    <inkscape:page
       x="0"
       y="0"
       inkscape:label="1"
       id="page1"
       width="350.66534"
       height="235.29333"
       margin="0"
       bleed="0" />
  </sodipodi:namedview>
  <g
     id="layer-MC0"
     inkscape:groupmode="layer"
     inkscape:label="Countryflags.com">
    <path
       id="path1"
       d="M 0,1.117 H 263 V 176.45 H 0 Z"
       style="fill:#003893;fill-opacity:1;fill-rule:nonzero;stroke:none"
       transform="matrix(1.3333333,0,0,-1.3333333,0,235.29333)" />
    <path
       id="path2"
       d="M 0,44.117 H 263 V 88.234 H 0 Z"
       style="fill:#ffffff;fill-opacity:1;fill-rule:nonzero;stroke:none"
       transform="matrix(1.3333333,0,0,-1.3333333,0,235.29333)" />
    <path
       id="path3"
       d="M 0,58.822 H 263 V 73.528 H 0 Z"
       style="fill:#ce1126;fill-opacity:1;fill-rule:nonzero;stroke:none"
       transform="matrix(1.3333333,0,0,-1.3333333,0,235.29333)" />
    <path
       id="path4"
       d="M 0,0 5.186,-3.768 3.205,-9.864 8.392,-6.097 13.578,-9.864 11.597,-3.768 16.783,0 h -6.41 L 8.392,6.098 6.411,0 Z"
       style="fill:#ffcc00;fill-opacity:1;fill-rule:nonzero;stroke:none"
       transform="matrix(1.3333333,0,0,-1.3333333,119.64667,84.600267)" />
    <path
       id="path5"
       d="M 0,0 5.186,-3.769 3.205,-9.865 8.391,-6.098 13.578,-9.865 11.597,-3.769 16.783,0 H 10.372 L 8.391,6.097 6.41,0 Z"
       style="fill:#ffcc00;fill-opacity:1;fill-rule:nonzero;stroke:none"
       transform="matrix(1.3333333,0,0,-1.3333333,85.132933,96.027333)" />
    <path
       id="path6"
       d="M 0,0 5.187,-3.769 3.205,-9.865 8.392,-6.097 13.578,-9.865 11.597,-3.768 16.783,0 h -6.41 L 8.392,6.097 6.411,0 Z"
       style="fill:#ffcc00;fill-opacity:1;fill-rule:nonzero;stroke:none"
       transform="matrix(1.3333333,0,0,-1.3333333,153.9096,95.671867)" />
    <path
       id="path7"
       d="M 0,0 5.186,-3.769 3.205,-9.865 8.392,-6.097 13.578,-9.865 11.597,-3.768 16.783,0 h -6.41 L 8.392,6.097 6.411,0 Z"
       style="fill:#ffcc00;fill-opacity:1;fill-rule:nonzero;stroke:none"
       transform="matrix(1.3333333,0,0,-1.3333333,175.3328,125.38413)" />
    <path
       id="path8"
       d="M 0,0 5.186,-3.769 3.205,-9.865 8.392,-6.097 13.578,-9.865 11.597,-3.769 16.783,0 h -6.41 L 8.392,6.097 6.411,0 Z"
       style="fill:#ffcc00;fill-opacity:1;fill-rule:nonzero;stroke:none"
       transform="matrix(1.3333333,0,0,-1.3333333,175.3328,161.46227)" />
    <path
       id="path9"
       d="M 0,0 5.186,-3.768 3.205,-9.864 8.392,-6.097 13.578,-9.864 11.597,-3.768 16.783,0 h -6.41 L 8.392,6.098 6.411,0 Z"
       style="fill:#ffcc00;fill-opacity:1;fill-rule:nonzero;stroke:none"
       transform="matrix(1.3333333,0,0,-1.3333333,154.1564,191.26693)" />
    <path
       id="path10"
       d="M 0,0 5.186,-3.769 3.205,-9.865 8.392,-6.098 13.578,-9.865 11.597,-3.769 16.783,0 H 10.372 L 8.392,6.097 6.41,0 Z"
       style="fill:#ffcc00;fill-opacity:1;fill-rule:nonzero;stroke:none"
       transform="matrix(1.3333333,0,0,-1.3333333,119.6648,202.2552)" />
    <path
       id="path11"
       d="M 0,0 5.186,-3.768 3.205,-9.865 8.392,-6.097 13.578,-9.865 11.597,-3.768 16.783,0 H 10.372 L 8.392,6.097 6.41,0 Z"
       style="fill:#ffcc00;fill-opacity:1;fill-rule:nonzero;stroke:none"
       transform="matrix(1.3333333,0,0,-1.3333333,84.6108,190.8216)" />
    <path
       id="path12"
       d="M 0,0 5.186,-3.768 3.205,-9.865 8.392,-6.097 13.578,-9.865 11.597,-3.768 16.783,0 h -6.41 L 8.392,6.097 6.411,0 Z"
       style="fill:#ffcc00;fill-opacity:1;fill-rule:nonzero;stroke:none"
       transform="matrix(1.3333333,0,0,-1.3333333,63.879067,161.2852)" />
    <path
       id="path13"
       d="M 0,0 5.186,-3.769 3.205,-9.865 8.392,-6.098 13.578,-9.865 11.597,-3.769 16.783,0 H 10.372 L 8.392,6.097 6.41,0 Z"
       style="fill:#ffcc00;fill-opacity:1;fill-rule:nonzero;stroke:none"
       transform="matrix(1.3333333,0,0,-1.3333333,63.972133,125.04427)" />
  </g>
</svg>
